% File: placeholder.mpbeginfig(-1);verbatimtex%&latex\documentclass{article}\usepackage{color}\begin{document}etex;label.rt(btex place holder etex, (0,0));endfig;verbatimtex\end{document}etexend% $Log: placeholder.mp,v $% Revision 1.4  2006/07/20 04:47:53  churchoflambda% Re-added the files to record their changes.%% Revision 1.2  2005/08/02 15:07:09  churchoflambda% Added CVS tags; add rail diagrams for pfsm, map1d, map2d, map3d and listen.%